X:17
T:Paresis
R:Reel
O:Cape Breton
M:2/4
C:Trad.-Ashley MacIsaac, Richard Wood
K:B flat
A|BAGF DGGB|AFCF DFCF|BAFG DGGA|BdcA BGG2:|{A}B2g2g2 (ga)|bga^f gdBG|
F2f2f2 (fg)|afg=e fcAF|G2g2g2 (ga)|bga=f g2(de)|=f2(fd) cAGF|DGGA G2|
{A}B2g2g2 (ga)|bga^f gdBG|CFA,F CFA,F|f=efg afcA|G2g2g2 (ga)|
bga=f g2(de)|f=efd cAGF|DGGA G2||
